file/loreal.svg

<svg clip-rule="evenodd" fill-rule="evenodd" stroke-linejoin="round" stroke-miterlimit="1.41421" viewBox="0 0 560 400" xmlns="http://www.w3.org/2000/svg"><path d="m195.188 0c-46.828 0-78.745 33.017-78.745 72.979 0 42.07 35.257 71.769 78.745 71.769 43.459 0 78.702-29.275 78.702-71.769 0-39.962-32.312-72.979-78.702-72.979zm240.041 19.551h103.236v12.564h-85.538v37.175h64.249v12.759h-64.249v40.35h85.538v12.61h-103.236zm260.408 0h16.136v102.848h88.227v12.61h-104.363zm-327.987 0c24.971 0 38.868 12.778 40.447 33.404.134 7.036-2.436 26.717-28.887 33.775 10.309 15.676 35.373 48.25 35.396 48.279h-20.909l-34.853-48.433h-47.375v48.433h-16.589v-115.458zm237.709 0h22.598l58.754 115.458h-19.639l-15.147-29.884h-70.41l-15.019 29.884h-19.844zm-589.214 0v102.848h88.214v12.61h-104.359v-115.458zm178.481 110.865c-32.398 0-59.092-26.035-59.092-57.398 0-31.32 25.434-58.602 60.348-58.602 34.049 0 59.078 27.282 59.078 58.602 0 31.362-27.95 57.398-60.334 57.398zm449.972-39.763-27.988-55.148-27.664 55.148zm-277.334-57.436h-55.795v39.717h53.916c8.802 0 17.66-1.642 22.323-9.358 2.849-4.667 3.953-11.522 2.231-16.744-2.603-7.618-9.829-13.615-22.675-13.615zm-276.388-13.666h17.484l-21.727 40.845h-11.97zm384.025-2.962 13.977-15.702h29.9z" fill-rule="nonzero" transform="matrix(.62177 0 0 .62177 31.2919 155)"/></svg>

<?xml version="1.0" encoding="UTF-8" standalone="no"?>
<!DOCTYPE svg PUBLIC "-//W3C//DTD SVG 1.1//EN" "http://www.w3.org/Graphics/SVG/1.1/DTD/svg11.dtd">
<svg width="100%" height="100%" viewBox="0 0 560 400" version="1.1" xmlns="http://www.w3.org/2000/svg" xmlns:xlink="http://www.w3.org/1999/xlink" xml:space="preserve" xmlns:serif="http://www.serif.com/" style="fill-rule:evenodd;clip-rule:evenodd;stroke-linejoin:round;stroke-miterlimit:1.41421;">
    <g id="polyline3" transform="matrix(0.62177,0,0,0.62177,31.2919,155)">
        <path d="M195.188,0C148.36,0 116.443,33.017 116.443,72.979C116.443,115.049 151.7,144.748 195.188,144.748C238.647,144.748 273.89,115.473 273.89,72.979C273.89,33.017 241.578,0 195.188,0ZM435.229,19.551L538.465,19.551L538.465,32.115L452.927,32.115L452.927,69.29L517.176,69.29L517.176,82.049L452.927,82.049L452.927,122.399L538.465,122.399L538.465,135.009L435.229,135.009L435.229,19.551ZM695.637,19.551L711.773,19.551L711.773,122.399L800,122.399L800,135.009L695.637,135.009L695.637,19.551ZM367.65,19.551C392.621,19.551 406.518,32.329 408.097,52.955C408.231,59.991 405.661,79.672 379.21,86.73C389.519,102.406 414.583,134.98 414.606,135.009L393.697,135.009L358.844,86.576L311.469,86.576L311.469,135.009L294.88,135.009L294.88,19.551L367.65,19.551ZM605.359,19.551L627.957,19.551L686.711,135.009L667.072,135.009L651.925,105.125L581.515,105.125L566.496,135.009L546.652,135.009L605.359,19.551ZM16.145,19.551L16.145,122.399L104.359,122.399L104.359,135.009L0,135.009L0,19.551L16.145,19.551ZM194.626,130.416C162.228,130.416 135.534,104.381 135.534,73.018C135.534,41.698 160.968,14.416 195.882,14.416C229.931,14.416 254.96,41.698 254.96,73.018C254.96,104.38 227.01,130.416 194.626,130.416ZM644.598,90.653L616.61,35.505L588.946,90.653L644.598,90.653ZM367.264,33.217L311.469,33.217L311.469,72.934L365.385,72.934C374.187,72.934 383.045,71.292 387.708,63.576C390.557,58.909 391.661,52.054 389.939,46.832C387.336,39.214 380.11,33.217 367.264,33.217ZM90.876,19.551L108.36,19.551L86.633,60.396L74.663,60.396L90.876,19.551ZM474.901,16.589L488.878,0.887L518.778,0.887L474.901,16.589Z" style="fill-rule:nonzero;"/>
    </g>
</svg>
